vendor/shopware/storefront/Resources/app/storefront/dist/assets/icon/default/colorpicker.svg

<svg xmlns="http://www.w3.org/2000/svg" width="24" height="24" viewBox="0 0 24 24">
  <path fill="#758CA3" fill-rule="evenodd" d="M17.8248113,8.52512627 L19.0570443,7.29289322 C19.7710895,6.57884801 19.7710895,5.42115199 19.0570443,4.70710678 C18.3429991,3.99306157 17.1853031,3.99306157 16.4712579,4.70710678 L15.2390248,5.93933983 L17.8248113,8.52512627 Z M13.8248113,4.52512627 L15.0570443,3.29289322 C16.5521381,1.79779943 18.9761641,1.79779943 20.4712579,3.29289322 C21.9663517,4.78798701 21.9663517,7.21201299 20.4712579,8.70710678 L19.2390248,9.93933983 L19.3707528,10.0710678 C20.1518014,10.8521164 20.1518014,12.1184464 19.3707528,12.8994949 L18.2567918,14.013456 C17.4757432,14.7945046 16.2094132,14.7945046 15.4283646,14.013456 L15.2966367,13.881728 L8.76415108,20.4142136 C8.38907832,20.7892863 7.8803705,21 7.34993752,21 L6.00021906,21 L4.89464625,21.5527864 C4.33159127,21.8343139 3.66884685,21.8343139 3.10579187,21.5527864 C2.11783487,21.0588079 1.71738618,19.8574618 2.21136467,18.8695048 L2.76415108,17.763932 L2.76415108,16.4142136 C2.76415108,15.8837806 2.97486476,15.3750728 3.34993752,15 L9.8824231,8.46751442 L9.77151039,8.35660172 C8.99046181,7.57555313 8.99046181,6.30922318 9.77151039,5.52817459 L10.8854714,4.41421356 C11.66652,3.63316498 12.93285,3.63316498 13.7138985,4.41421356 L13.8248113,4.52512627 Z M11.2966367,9.88172798 L4.76415108,16.4142136 L4.76415108,18 C4.76415108,18.1552451 4.72800599,18.3083582 4.65857827,18.4472136 L4.00021906,19.763932 L5.31693748,19.1055728 C5.45579292,19.0361451 5.60890598,19 5.76415108,19 L7.34993752,19 L13.8824231,12.4675144 L11.2966367,9.88172798 Z M12.299685,5.82842712 L11.185724,6.94238816 L16.8425782,12.5992424 L17.9565392,11.4852814 L12.299685,5.82842712 Z"/>
</svg>

<svg xmlns="http://www.w3.org/2000/svg" width="24" height="24" viewBox="0 0 24 24"><path fill="#758CA3" fill-rule="evenodd" d="M17.8248 8.5251 19.057 7.293c.714-.714.714-1.8717 0-2.5858-.714-.714-1.8717-.714-2.5857 0L15.239 5.9393l2.5858 2.5858zm-4-4L15.057 3.293c1.4951-1.4951 3.9192-1.4951 5.4143 0 1.495 1.495 1.495 3.9191 0 5.4142L19.239 9.9393l.1318.1318c.781.781.781 2.0473 0 2.8284l-1.114 1.114c-.781.781-2.0474.781-2.8284 0l-.1318-.1318-6.5324 6.5325A2 2 0 0 1 7.3499 21H6.0002l-1.1056.5528a2 2 0 0 1-1.7888 0c-.988-.494-1.3884-1.6953-.8944-2.6833l.5528-1.1056v-1.3497A2 2 0 0 1 3.3499 15l6.5325-6.5325-.1109-.1109c-.781-.781-.781-2.0474 0-2.8284l1.114-1.114c.781-.781 2.0473-.781 2.8284 0l.111.111zm-2.5282 5.3566-6.5324 6.5325V18a1 1 0 0 1-.1056.4472l-.6584 1.3167 1.3167-.6583A1 1 0 0 1 5.7642 19h1.5857l6.5325-6.5325-2.5858-2.5858zm1.003-4.0533-1.1139 1.114 5.6569 5.6568 1.114-1.114-5.657-5.6568z"/></svg>
